X: 1
T: Morning Mist, The
M: 4/4
L: 1/8
R: reel
K: Gmaj
d2BG DGAG|dGAG DGBd|c2Bd c=F~F2|C=FAF CFAc|
d2BG DGAG|dgfa gdBd|c2AB cedc|1 BdAF G2Bc:|2 BdAF G2Bd||
|:g2dc Bcdc|BG~G2 DGBd|eaag ~a3g|fdad bdaf|
g2dc Bcdc|BG~G2 DGBd|c2AB cedc|1 BdAF G2Bd:|2 BdAF G2Bc||
